**kern	**kern
*part1	*part1
*staff2	*staff1
*I"Piano	*
*clefF4	*clefG2
*k[b-e-a-d-g-]	*k[b-e-a-d-g-]
=1	=1
*	*^
8r	4gn	16gnLL
.	.	16dn
16r	.	16c-XJJ
16ryy	.	16dnLL<
8ryy	8a-)	16A-<
.	.	16FJJ<
=	=	=
8DD-	(8.dd-	16dd-LL
.	.	16g-X
16r	.	16d-JJ
16ryy	[8.g-	16d-XLL<
8ryy	.	16B-<
.	.	16D-JJ<
=	=	=
8r	4g-]	16g-LL
.	.	16c
16r	.	16B--JJ
16ryy	.	16c-XLL<
8ryy	8f)	16A-<
.	.	16D-JJ<
=	=	=
8DD-	(8.b-	16b-LL
.	.	16e-
16r	.	16B-JJ
16ryy	[8.e-	16B-LL<
8ryy	.	16Gn<
.	.	16D-JJ<
=	=	=
8r	4e-]	16d-LL
.	.	16B--
16r	.	16G-JJ
16ryy	.	16A-LL<
8ryy	8c) 8f	16G-<
.	.	16AA-JJ<
=	=	=
8DD-	(8.d-	16d-LL
.	.	16A-<
16rEE	.	16FJJ<
16ryy	8.d-<	16d-LL<
8ryy	.	16A-<
.	.	16FJJ<
=	=	=
8r	8.f	16fLL
.	.	16d-
16r	.	16A-JJ
16ryy	8.a-)	16a-LL
8ryy	.	16f
.	.	16d-JJ
=	=	=
4.r	[4.dd-	4.dd-
*	*v	*v
=	=
4.r	4dd-]
.	8r
==	==
*-	*-
!!!system-decoration: {(s1,s2)}
!!!RDF**kern: < = below
